svgs/forest.svg

<svg width="192" height="192" viewBox="0 0 192 192" fill="none" xmlns="http://www.w3.org/2000/svg">
<path d="M104.654 117.075C111.763 117.072 118.294 117.069 120.883 117.067C121.347 117.108 121.817 117.089 122.274 117.201C124.604 117.768 126.968 118.115 129.248 119.029C131.503 119.933 133.818 121.045 134.965 124.984V128.386C134.377 130.738 133.165 131.944 131.84 132.891C128.5 135.279 124.953 136.218 121.36 136.246C107.931 136.352 94.5024 136.296 81.0733 136.285C77.9316 136.283 74.8252 135.693 71.8232 134.15C69.7598 133.089 67.6289 132.046 66.6001 128.386C66.6001 127.216 66.6001 126.044 66.6001 124.874C66.7473 124.432 66.8623 123.95 67.0466 123.556C68.007 121.503 69.3921 120.539 70.8152 119.713C73.9844 117.872 77.2771 117.234 80.6154 117.067C80.8491 117.072 81.0818 117.081 81.3155 117.081C84.2557 117.082 91.241 117.081 98.6139 117.078" stroke="black" stroke-width="8" stroke-linejoin="round"/>
<path d="M66.6001 128.386C67.6289 132.046 69.7598 133.089 71.8232 134.15C74.8252 135.692 77.9316 136.282 81.0733 136.285C94.5024 136.296 107.931 136.352 121.36 136.246C124.953 136.218 128.501 135.279 131.84 132.891C133.165 131.944 134.377 130.738 134.965 128.386V132.118C134.926 132.511 134.885 132.904 134.846 133.298C133.941 142.338 130.985 148.913 125.927 152.716C124.42 153.85 122.701 154.223 121.078 154.945H80.4862C80.2468 154.879 80.0074 154.812 79.768 154.747C74.2694 153.26 70.269 148.4 67.9557 140.087C67.266 137.609 67.039 134.783 66.6001 132.118C66.6001 130.874 66.6001 129.629 66.6001 128.386Z" stroke="black" stroke-width="8" stroke-linejoin="round"/>
<path d="M93.483 87.731L98.4562 92.6187L100.748 107.605L100.148 127.889M63.0718 55.1224C67.9053 58.4008 74.1668 61.8351 79.4098 66.4321C84.6594 71.0358 88.8898 76.8003 92.7258 81.1095C90.1789 70.3318 76.6766 57.4176 63.0718 55.1224ZM106.949 87.559C114.162 78.2738 124.19 74.9307 135.439 73.1561C124.975 70.2026 108.123 78.7763 106.949 87.559Z" stroke="black" stroke-width="8" stroke-linecap="round" stroke-linejoin="round"/>
<path d="M100.148 127.889C98.2073 128.258 97.7855 127.582 97.9964 125.588C98.6149 119.734 98.9436 113.85 99.3853 107.977C99.3815 107.884 99.3768 107.791 99.373 107.698C98.8125 102.78 98.5826 97.7895 97.5309 92.9787C97.1044 91.0274 93.483 87.731 93.483 87.731C89.0788 87.6474 84.6699 87.674 80.2724 87.4583C70.5805 86.9824 61.1813 85.3826 53.1358 79.3776C47.8443 75.4276 44.3303 70.005 40.936 64.4722C37.7497 59.2796 34.4219 54.1743 31.1558 49.031C28.2374 45.0354 24.5115 42.0438 20 39.8484C42.0617 36.3866 63.4755 36.6821 82.6208 50.5311C92.1349 57.9078 95.3193 68.1012 95.3972 79.5962C95.4143 82.1402 95.8352 84.1941 97.5509 86.2917C99.2428 88.3598 100.113 91.0987 101.351 93.5392C101.584 93.9981 101.846 94.4417 102.095 94.892C102.175 95.7128 102.256 96.5336 102.337 97.3544C102.488 97.3572 102.639 97.361 102.79 97.3639C103.131 94.7315 103.473 92.099 103.814 89.4666C104.69 85.9345 105.289 82.3046 106.493 78.8894C110.708 66.9432 118.016 61.6736 130.688 61.1036C132.827 61.1036 134.966 61.1036 137.107 61.1036C142.999 61.2366 148.917 61.7743 154.775 61.3867C160.61 61 165.676 58.0313 170.484 54.7975C170.84 54.5572 171.213 54.3415 172 53.8532C171.534 55.8168 171.242 57.3653 170.796 58.8682C167.082 71.4196 160.714 82.2219 149.325 89.2272C138.353 95.975 126.785 96.64 114.938 91.3172C113.285 90.5743 111.469 90.142 109.689 89.7478C107.661 89.2975 106.236 90.4812 105.938 92.2605C105.085 97.3629 104.53 102.516 103.858 107.649C103.85 107.774 103.842 107.899 103.834 108.024C104.161 112.356 104.489 116.689 104.815 121.021C104.804 123.311 104.794 125.602 104.783 127.892C103.238 127.892 101.693 127.89 100.148 127.89" stroke="black" stroke-width="8" stroke-linecap="round" stroke-linejoin="round"/>
<path d="M63.0718 55.1224C76.6766 57.4176 90.1789 70.3318 92.7258 81.1095C88.8898 76.7994 84.6594 71.0348 79.4098 66.4321C74.1677 61.8351 67.9053 58.4008 63.0718 55.1224Z" stroke="black" stroke-width="8" stroke-linejoin="round"/>
<path d="M106.95 87.559C108.124 78.7763 124.976 70.2035 135.439 73.1561C124.19 74.9298 114.162 78.2737 106.95 87.559Z" stroke="black" stroke-width="8" stroke-linejoin="round"/>
</svg>

<svg xmlns="http://www.w3.org/2000/svg" width="192" height="192" fill="none" viewBox="0 0 192 192"><path stroke="#000" stroke-linejoin="round" stroke-width="8" d="m104.654 117.075 16.229-.008c.464.041.934.022 1.391.134 2.33.567 4.694.914 6.974 1.828 2.255.904 4.57 2.016 5.717 5.955v3.402c-.588 2.352-1.8 3.558-3.125 4.505-3.34 2.388-6.887 3.327-10.48 3.355-13.429.106-26.858.05-40.287.039-3.141-.002-6.248-.592-9.25-2.135-2.063-1.061-4.194-2.104-5.223-5.764v-3.512c.147-.442.262-.924.447-1.318.96-2.053 2.345-3.017 3.768-3.843 3.17-1.841 6.462-2.479 9.8-2.646.234.005.467.014.7.014 2.94.001 9.926 0 17.299-.003"/><path stroke="#000" stroke-linejoin="round" stroke-width="8" d="M66.6 128.386c1.029 3.66 3.16 4.703 5.223 5.764 3.002 1.542 6.109 2.132 9.25 2.135 13.43.011 26.858.067 40.287-.039 3.593-.028 7.141-.967 10.48-3.355 1.325-.947 2.537-2.153 3.125-4.505v3.732l-.119 1.18c-.905 9.04-3.861 15.615-8.919 19.418-1.507 1.134-3.226 1.507-4.849 2.229H80.486l-.718-.198c-5.499-1.487-9.499-6.347-11.812-14.66-.69-2.478-.917-5.304-1.356-7.969v-3.732Z"/><path stroke="#000" stroke-linecap="round" stroke-linejoin="round" stroke-width="8" d="m93.483 87.731 4.973 4.888 2.292 14.986-.6 20.284M63.072 55.122c4.833 3.279 11.095 6.713 16.338 11.31 5.25 4.604 9.48 10.368 13.316 14.677-2.547-10.777-16.05-23.691-29.654-25.987Zm43.877 32.437c7.213-9.285 17.241-12.628 28.49-14.403-10.464-2.953-27.316 5.62-28.49 14.403Z"/><path stroke="#000" stroke-linecap="round" stroke-linejoin="round" stroke-width="8" d="M100.148 127.889c-1.94.369-2.362-.307-2.152-2.301.619-5.854.948-11.738 1.39-17.611-.004-.093-.01-.186-.013-.279-.56-4.918-.79-9.908-1.842-14.72-.427-1.95-4.048-5.247-4.048-5.247-4.404-.084-8.813-.057-13.21-.273-9.692-.476-19.092-2.075-27.137-8.08-5.292-3.95-8.806-9.373-12.2-14.906-3.186-5.192-6.514-10.298-9.78-15.441-2.919-3.996-6.644-6.987-11.156-9.183 22.062-3.461 43.475-3.166 62.62 10.683 9.515 7.377 12.7 17.57 12.777 29.065.017 2.544.438 4.598 2.154 6.696 1.692 2.068 2.562 4.807 3.8 7.247.233.46.495.903.744 1.353l.242 2.462.453.01 1.024-7.897c.876-3.532 1.475-7.162 2.679-10.578 4.215-11.946 11.523-17.215 24.195-17.785h6.419c5.892.133 11.81.67 17.668.283 5.835-.387 10.901-3.356 15.709-6.59.356-.24.729-.455 1.516-.944-.466 1.964-.758 3.512-1.204 5.015-3.714 12.552-10.082 23.354-21.471 30.36-10.972 6.747-22.54 7.412-34.387 2.09-1.653-.744-3.469-1.176-5.249-1.57-2.028-.45-3.453.733-3.751 2.512-.853 5.103-1.408 10.256-2.08 15.389l-.024.375.981 12.997-.032 6.871-4.635-.002"/><path stroke="#000" stroke-linejoin="round" stroke-width="8" d="M63.072 55.122c13.605 2.296 27.107 15.21 29.654 25.987-3.836-4.31-8.067-10.074-13.316-14.677-5.242-4.597-11.505-8.031-16.338-11.31ZM106.95 87.559c1.174-8.783 18.026-17.355 28.489-14.403-11.249 1.774-21.277 5.118-28.489 14.403Z"/></svg>
